src/extras-unicode/symbol-other/25D0.svg

<?xml version="1.0" encoding="UTF-8"?>
<svg id="emoji" xmlns="http://www.w3.org/2000/svg" viewBox="0 0 72 72">
  <g id="grid">
    <path d="m68,4v64H4V4h64Zm4-4H0v72h72V0Z" fill="#b3b3b3"/>
    <path d="m12.923,10.9583h46.1539c.51,0,.9992.2026,1.3598.5632.3607.3607.5633.8498.5633,1.3599v46.1537c0,.5101-.2026.9992-.5633,1.3599-.3606.3606-.8498.5633-1.3598.5633H12.9231c-.51,0-.9992-.2027-1.3598-.5633-.3607-.3607-.5633-.8498-.5633-1.3599V12.8813c0-.5101.2026-.9992.5632-1.3598.3607-.3606.8498-.5632,1.3598-.5632h0Z" fill="none" stroke="#00a5ff" stroke-miterlimit="10" stroke-width=".1"/>
    <path d="m53.7463,4H18.2537c-1.2447,0-2.2537,1.009-2.2537,2.2537v59.4926c0,1.2447,1.009,2.2537,2.2537,2.2537h35.4926c1.2447,0,2.2537-1.009,2.2537-2.2537V6.2537c0-1.2447-1.009-2.2537-2.2537-2.2537Z" fill="none" stroke="#00a5ff" stroke-miterlimit="10" stroke-width=".1"/>
    <path d="m68,53.7463V18.2537c0-1.2447-1.009-2.2537-2.2537-2.2537H6.2537c-1.2447,0-2.2537,1.009-2.2537,2.2537v35.4926c0,1.2447,1.009,2.2537,2.2537,2.2537h59.4926c1.2447,0,2.2537-1.009,2.2537-2.2537Z" fill="none" stroke="#00a5ff" stroke-miterlimit="10" stroke-width=".1"/>
    <path d="m36,65c16.0163,0,29-12.9837,29-29S52.0163,7,36,7,7,19.9837,7,36s12.9837,29,29,29Z" fill="none" stroke="#00a5ff" stroke-miterlimit="10" stroke-width=".1"/>
  </g>
  <g id="color">
    <path d="m36.7946,44.5356V8.9226c7.4261,0,13.7534,3.0274,19.0044,8.2784,5.251,5.251,7.6176,11.6901,7.6176,19.1162s-2.6864,13.5741-7.9374,18.8251-10.9775,8.0077-18.4036,8.0077l-.281-18.6143Z" fill="#fff"/>
    <path d="m37,44.2857l-1.8532-35.3021c-7.9565,0-13.6584,3.1402-19.2845,8.5788s-8.3703,14.6227-6.8135,22.5479c1.5453,7.8672,3.9269,11.6304,9.553,17.069,6.6731,4.8468,10.4418,6.0409,18.3983,6.0409v-18.9345Z" fill="#3f3f3f"/>
  </g>
  <g id="line">
    <path d="m36,64c15.464,0,28-12.536,28-28s-12.536-28-28-28-28,12.536-28,28,12.536,28,28,28Z" fill="none" stroke="#000" stroke-linejoin="round" stroke-width="2"/>
    <path d="m36,8v53" fill="none" stroke="#000" stroke-linecap="round" stroke-width="2"/>
  </g>
</svg>

<svg id="emoji" viewBox="0 0 72 72" xmlns="http://www.w3.org/2000/svg">
  <g id="grid">
    <path fill="#B3B3B3" d="M68 4V68H4V4H68ZM72 0H0V72H72V0Z"/>
    <path fill="none" stroke="#00A5FF" stroke-miterlimit="10" stroke-width="0.1" d="M12.923 10.9583H59.0769C59.5869 10.9583 60.0761 11.1609 60.4367 11.5215C60.7974 11.8822 61 12.3713 61 12.8814V59.0351C61 59.5452 60.7974 60.0343 60.4367 60.395C60.0761 60.7556 59.5869 60.9583 59.0769 60.9583H12.9231C12.4131 60.9583 11.9239 60.7556 11.5633 60.395C11.2026 60.0343 11 59.5452 11 59.0351V12.8813C11 12.3712 11.2026 11.8821 11.5632 11.5215C11.9239 11.1609 12.413 10.9583 12.923 10.9583V10.9583Z"/>
    <path fill="none" stroke="#00A5FF" stroke-miterlimit="10" stroke-width="0.1" d="M53.7463 4H18.2537C17.009 4 16 5.00902 16 6.2537V65.7463C16 66.991 17.009 68 18.2537 68H53.7463C54.991 68 56 66.991 56 65.7463V6.2537C56 5.00902 54.991 4 53.7463 4Z"/>
    <path fill="none" stroke="#00A5FF" stroke-miterlimit="10" stroke-width="0.1" d="M68 53.7463V18.2537C68 17.009 66.991 16 65.7463 16L6.2537 16C5.00902 16 4 17.009 4 18.2537V53.7463C4 54.991 5.00902 56 6.2537 56L65.7463 56C66.991 56 68 54.991 68 53.7463Z"/>
    <path fill="none" stroke="#00A5FF" stroke-miterlimit="10" stroke-width="0.1" d="M36 65C52.0163 65 65 52.0163 65 36C65 19.9837 52.0163 7 36 7C19.9837 7 7 19.9837 7 36C7 52.0163 19.9837 65 36 65Z"/>
  </g>
  <g id="line-supplement">
    <path fill="#000" d="M37 44.2857V7C29.0435 7 21.4129 10.0553 15.7868 15.4939C10.1607 20.9325 7 28.3087 7 36C7 43.6913 10.1607 51.0675 15.7868 56.5061C21.4129 61.9446 29.0435 65 37 65V44.2857Z"/>
  </g>
  <g id="color">
    <path fill="#fff" d="M36 45V9C43.4261 9 50.548 11.95 55.799 17.201C61.05 22.452 64 29.5739 64 37C64 44.4261 61.05 51.548 55.799 56.799C50.548 62.05 43.4261 65 36 65V45Z"/>
    <path fill="#3F3F3F" d="M37 44.2857V7C29.0435 7 21.4129 10.0553 15.7868 15.4939C10.1607 20.9325 7 28.3087 7 36C7 43.6913 10.1607 51.0675 15.7868 56.5061C21.4129 61.9446 29.0435 65 37 65V44.2857Z"/>
  </g>
  <g id="line">
    <path fill="none" stroke="#000" stroke-linejoin="round" stroke-width="2" d="M36 64C51.464 64 64 51.464 64 36C64 20.536 51.464 8 36 8C20.536 8 8 20.536 8 36C8 51.464 20.536 64 36 64Z"/>
    <path fill="none" stroke="#000" stroke-linecap="round" stroke-width="2" d="M36 8V61"/>
  </g>
</svg>
